!!!SOCIAL_FUNCTION:	songs of war
!!!PDT:	1913
!!!OTL: No_14_The_Man_Who_Stayed_at_Home.krn
!!!REG: Great_Lakes
!!!LANG: Non-Tone
!!!LING_GROUP: Algonquin
**kern
*staff1
=1-
*clefF4
*k[b-]
*M2/4
4d\
4d\
=2
(8d\L
8A\J)
4A\
=3
(8A\L
(8F\J)
4F\)
=4
4A\
8.A\L
16A\Jk
=5
2B-;\
=6||
*M3/4
4.A\
8B-\
4A\
=7||
*M2/4
4F\
4F\
=8
[2D\
=9
2D\_
=10
4D\]
4F\
=11
4A\
4A\
=12||
*M3/4
8.A\L
16B-\Jk
4G\
4F\
=13||
*M2/4
4G\
4F\
=14
[2D\
=15||
*M3/4
2D\]
4AA/
=16||
*M2/4
4D\
4D\
=17
4F\
8D\L
8D\J
=18
4.AA/
8AA/
=19
2AA/
==
*-
